X: 1667
T: Little Burnt Potato
C:Colin J Boyd, Cape Breton (1891-1975)
B: australian traditional tunes wiki
B: kameruka bush dance
B: to learn
M:6/8
L:1/8
R: Jig
Q: 3/8=100
K:G
V:1 
B|:"G"d^cde2d|dBGD2A|BABc2B|"C"ABA EFG|
"D7"ABA GFE|DFA d2d|d^cd ed=c|"G"(B3B2)d|
"G"d^cde2d|dBGD2A|BABc2B|"C"ABA EFG|
"D7"ABA GFE|DFA d2d|d^cde2F|"G"(G3G2)D:|
|:"G" B2DB2D | (B3B2)B | DBB DBB | "C" (c3c2)B |
 "D7" ABA GFE | DFA d2d |1d^cd ed=c | "G" (B3B2)D:|2d^cd e2 F | "G"G6|]
% abcbook-tune_id 6342d53af621c42fb6a8ac6c
% abcbook-link-0 https://www.youtube.com/watch?v=Q3Pt8ivlMLQ
% abcbook-link-title-0 Graham Townsend - Little Burnt Potato

% abcbook-boost 0
% abcbook-tablature 
% abcbook-transpose 7
% abcbook-lastupdated 1666789054056
% abcbook-soundfonts 
% abcbook-repeats 3
%%MIDI transpose             7
% NFF Book 2013

